X: 56
M: C
L: 1/16
K: D
uf2 |\
(vad3)(a3.f) (ad3)(a3.f) | "SEGUE"(ad3)a3f (be3)e3f |\
(ad3)a3f (ad3)a3f | g3ba3g (fd3)d3f |
(ad3)a3f (ad3)a3f | (ad3)a3f (be3)e3f |\
(ad3)a3f (ad3)a3f | g3ba3g (fd3)d2 |]
uf2 |\
(vA3.d)(F3.d) "SEGUE"(A3d)f3d | A3dF3d ("4"eE3)E3d |\
va3fg3e f3d"4"e3c | A3Bd3e (fd3)d2 |]


